icons/e-mail_mb.svg

<svg width="20" height="20" viewBox="0 0 20 20" fill="none" xmlns="http://www.w3.org/2000/svg">
<path d="M0.417454 3.71703C3.16237 6.04168 7.97886 10.1314 9.39448 11.4066C9.58452 11.5788 9.78835 11.6663 9.99995 11.6663C10.2111 11.6663 10.4146 11.5796 10.6042 11.4083C12.021 10.1318 16.8375 6.04168 19.5825 3.71703C19.7534 3.57258 19.7794 3.31867 19.6411 3.14207C19.3212 2.73398 18.8444 2.5 18.3333 2.5H1.66663C1.15558 2.5 0.678665 2.73398 0.35886 3.14211C0.220501 3.31867 0.246556 3.57258 0.417454 3.71703Z" fill="#CD06FF"/>
<path d="M19.7583 4.97683C19.6106 4.90808 19.4369 4.93207 19.314 5.03707C16.2699 7.61761 12.3848 10.9253 11.1625 12.0268C10.4764 12.6461 9.5243 12.6461 8.83664 12.026C7.53375 10.8521 3.17094 7.14316 0.686016 5.03703C0.562305 4.93203 0.388164 4.90887 0.24168 4.97679C0.0944141 5.04519 0 5.1925 0 5.35484V15.8334C0 16.7526 0.747461 17.5 1.66668 17.5H18.3334C19.2525 17.5 20 16.7526 20 15.8334V5.35484C20 5.1925 19.9056 5.0448 19.7583 4.97683Z" fill="#CD06FF"/>
</svg>

<svg width="20" height="20" fill="none" xmlns="http://www.w3.org/2000/svg"><path d="M.417 3.717c2.745 2.325 7.562 6.414 8.977 7.69.19.172.394.26.606.26.211 0 .415-.087.604-.259 1.417-1.276 6.233-5.366 8.979-7.691a.416.416 0 0 0 .058-.575 1.655 1.655 0 0 0-1.308-.642H1.667c-.511 0-.988.234-1.308.642a.416.416 0 0 0 .058.575Z" fill="#CD06FF"/><path d="M19.758 4.977a.415.415 0 0 0-.444.06c-3.044 2.58-6.93 5.888-8.152 6.99-.686.62-1.638.62-2.325-.001C7.534 10.852 3.17 7.143.686 5.037A.417.417 0 0 0 0 5.355v10.478c0 .92.747 1.667 1.667 1.667h16.666c.92 0 1.667-.747 1.667-1.667V5.355a.416.416 0 0 0-.242-.378Z" fill="#CD06FF"/></svg>
